src/img/Find Button.svg

<svg width="65" height="40" viewBox="0 0 65 40" fill="none" xmlns="http://www.w3.org/2000/svg">
<path d="M0 0H59C62.3137 0 65 2.68629 65 6V34C65 37.3137 62.3137 40 59 40H0V0Z" fill="#EC1F46"/>
<path fill-rule="evenodd" clip-rule="evenodd" d="M32.3333 14.6667C29.7559 14.6667 27.6666 16.756 27.6666 19.3333C27.6666 21.9107 29.7559 24 32.3333 24C34.9106 24 36.9999 21.9107 36.9999 19.3333C36.9999 16.756 34.9106 14.6667 32.3333 14.6667ZM26.3333 19.3333C26.3333 16.0196 29.0195 13.3333 32.3333 13.3333C35.647 13.3333 38.3333 16.0196 38.3333 19.3333C38.3333 22.6471 35.647 25.3333 32.3333 25.3333C29.0195 25.3333 26.3333 22.6471 26.3333 19.3333Z" fill="white"/>
<path fill-rule="evenodd" clip-rule="evenodd" d="M35.6286 22.6286C35.889 22.3682 36.3111 22.3682 36.5714 22.6286L39.4714 25.5286C39.7318 25.7889 39.7318 26.211 39.4714 26.4714C39.2111 26.7317 38.789 26.7317 38.5286 26.4714L35.6286 23.5714C35.3683 23.311 35.3683 22.8889 35.6286 22.6286Z" fill="white"/>
</svg>

<svg width="65" height="40" fill="none" xmlns="http://www.w3.org/2000/svg"><path d="M0 0h59a6 6 0 0 1 6 6v28a6 6 0 0 1-6 6H0V0Z" fill="#EC1F46"/><path fill-rule="evenodd" clip-rule="evenodd" d="M32.333 14.667a4.667 4.667 0 1 0 0 9.333 4.667 4.667 0 0 0 0-9.333Zm-6 4.666a6 6 0 1 1 12 0 6 6 0 0 1-12 0Z" fill="#fff"/><path fill-rule="evenodd" clip-rule="evenodd" d="M35.629 22.629c.26-.26.682-.26.942 0l2.9 2.9a.667.667 0 1 1-.942.942l-2.9-2.9a.667.667 0 0 1 0-.942Z" fill="#fff"/></svg>
